_includes/icons/ios-flag-outline.svg

<svg fill="#666" height="50" viewBox="0 0 50 50" width="50" xmlns="http://www.w3.org/2000/svg"><path d="m13 0c-5.023437 0-8.121094.496094-10 1.03125-.941406.265625-1.578125.554688-2 .78125-.136719.074219-.210937.152344-.3125.21875-.023437.015625-.070312.015625-.09375.03125-.105469.054688-.203125.128906-.28125.21875-.011719 0-.019531 0-.03125 0l-.03125.0625c-.035156.027344-.066406.058594-.09375.09375l-.15625.125v.25c-.00390625.042969-.00390625.082031 0 .125v46.0625c-.00390625.359375.183594.695313.496094.878906.3125.179688.695312.179688 1.007812 0 .3125-.183593.5-.519531.496094-.878906v-18.34375c.417969-.167969 1.046875-.402344 2.1875-.6875 1.90625-.480469 4.828125-.96875 8.8125-.96875 3.902344 0 6.796875.960938 10.3125 1.96875 3.515625 1.007813 7.609375 2.03125 13.6875 2.03125 7.023438 0 12.5-3.125 12.5-3.125l.5-.28125v-27.28125l-1.46875.8125c-.820312.445313-5.519531 2.875-11.53125 2.875-4.777344 0-8.109375-1.40625-11.625-2.90625s-7.214844-3.09375-12.375-3.09375zm0 2c4.753906 0 8.078125 1.40625 11.59375 2.90625s7.230469 3.09375 12.40625 3.09375c5.382813 0 9.113281-1.59375 11-2.5v22.84375c-.683594.367188-5.050781 2.65625-11 2.65625-5.851562 0-9.6875-.976562-13.15625-1.96875-3.46875-.992187-6.613281-2.03125-10.84375-2.03125-4.148437 0-7.21875.511719-9.28125 1.03125-1.113281.28125-1.1875.382813-1.71875.59375v-25.09375c.285156-.148437.773438-.339844 1.5625-.5625 1.640625-.464844 4.546875-.96875 9.4375-.96875z"/></svg>

<svg xmlns="http://www.w3.org/2000/svg" viewBox="0 0 50 50" width="50" height="50" fill="#666"><path d="M 13 0 C 7.976563 0 4.878906 0.496094 3 1.03125 C 2.058594 1.296875 1.421875 1.585938 1 1.8125 C 0.863281 1.886719 0.789063 1.964844 0.6875 2.03125 C 0.664063 2.046875 0.617188 2.046875 0.59375 2.0625 C 0.488281 2.117188 0.390625 2.191406 0.3125 2.28125 C 0.300781 2.28125 0.292969 2.28125 0.28125 2.28125 L 0.25 2.34375 C 0.214844 2.371094 0.183594 2.402344 0.15625 2.4375 L 0 2.5625 L 0 2.8125 C -0.00390625 2.855469 -0.00390625 2.894531 0 2.9375 L 0 49 C -0.00390625 49.359375 0.183594 49.695313 0.496094 49.878906 C 0.808594 50.058594 1.191406 50.058594 1.503906 49.878906 C 1.816406 49.695313 2.003906 49.359375 2 49 L 2 30.65625 C 2.417969 30.488281 3.046875 30.253906 4.1875 29.96875 C 6.09375 29.488281 9.015625 29 13 29 C 16.902344 29 19.796875 29.960938 23.3125 30.96875 C 26.828125 31.976563 30.921875 33 37 33 C 44.023438 33 49.5 29.875 49.5 29.875 L 50 29.59375 L 50 2.3125 L 48.53125 3.125 C 47.710938 3.570313 43.011719 6 37 6 C 32.222656 6 28.890625 4.59375 25.375 3.09375 C 21.859375 1.59375 18.160156 0 13 0 Z M 13 2 C 17.753906 2 21.078125 3.40625 24.59375 4.90625 C 28.109375 6.40625 31.824219 8 37 8 C 42.382813 8 46.113281 6.40625 48 5.5 L 48 28.34375 C 47.316406 28.710938 42.949219 31 37 31 C 31.148438 31 27.3125 30.023438 23.84375 29.03125 C 20.375 28.039063 17.230469 27 13 27 C 8.851563 27 5.78125 27.511719 3.71875 28.03125 C 2.605469 28.3125 2.53125 28.414063 2 28.625 L 2 3.53125 C 2.285156 3.382813 2.773438 3.191406 3.5625 2.96875 C 5.203125 2.503906 8.109375 2 13 2 Z"/></svg>
